;FLAVOR:Marlin
;TIME:2798
;Filament used: 1.44662m
;Layer height: 0.16
;MINX:83.716
;MINY:83.769
;MINZ:0.2
;MAXX:136.284
;MAXY:136.231
;MAXZ:13.8
;Generated with Cura_SteamEngine 4.8
M140 S60
M105
M190 S60
M104 S200
M105
M109 S200
M82 ;absolute extrusion mode
; Ender 3 Custom Start G-code
G92 E0 ; Reset Extruder
G28 ; Home all axes
G29 ; Auto bed level
G1 Z2.0 F3000 ; Move Z Axis up little to prevent scratching of Heat Bed
G1 X0.1 Y20 Z0.3 F5000.0 ; Move to start position
G1 X0.1 Y200.0 Z0.3 F1500.0 E15 ; Draw the first line
G1 X0.4 Y200.0 Z0.3 F5000.0 ; Move to side a little
G1 X0.4 Y20 Z0.3 F1500.0 E30 ; Draw the second line
G92 E0 ; Reset Extruder
G1 Z2.0 F3000 ; Move Z Axis up little to prevent scratching of Heat Bed
G1 X5 Y20 Z0.3 F5000.0 ; Move over to prevent blob squish
G92 E0
G92 E0
G1 F1500 E-6.5
;LAYER_COUNT:71
;LAYER:0
M107
G0 F6000 X91.455 Y91.407 Z0.2
;TYPE:SKIRT
G1 F1500 E0
G1 F1200 X92.196 Y90.663 E0.03492
G1 X93.276 Y89.755 E0.08185
G1 X94.105 Y89.128 E0.11643
G1 X94.314 Y88.973 E0.12508
G1 X95.245 Y88.298 E0.16333
G1 X95.771 Y87.928 E0.18472
G1 X96.653 Y87.357 E0.21966
G1 X97.856 Y86.719 E0.26495
G1 X98.81 Y86.272 E0.29999
G1 X99.047 Y86.163 E0.30867
G1 X100.02 Y85.731 E0.34408
G1 X100.644 Y85.463 E0.36667
G1 X101.624 Y85.085 E0.4016
G1 X102.961 Y84.702 E0.44786
G1 X103.992 Y84.462 E0.48307
G1 X104.234 Y84.408 E0.49131
G1 X105.284 Y84.185 E0.52702
G1 X105.955 Y84.052 E0.54977
G1 X106.992 Y83.887 E0.58469
G1 X108.361 Y83.792 E0.63034
G1 X109.408 Y83.771 E0.66517
G1 X109.885 Y83.769 E0.68103
G1 X110.576 Y83.779 E0.70402
G1 X111.625 Y83.835 E0.73896
G1 X112.487 Y83.94 E0.76784
G1 X113.519 Y84.14 E0.8028
G1 X114.061 Y84.278 E0.8214
G1 X115.056 Y84.553 E0.85574
G1 X115.935 Y84.808 E0.88618
G1 X118.294 Y85.423 E0.96726
G1 X118.621 Y85.502 E0.97845
G1 X119.365 Y85.69 E1.00397
G1 X120.373 Y85.985 E1.03891
G1 X121.528 Y86.432 E1.0801
G1 X121.74 Y86.525 E1.0878
G1 X122.685 Y86.983 E1.12273
G1 X123.593 Y87.512 E1.15768
G1 X124.074 Y87.832 E1.17689
G1 X124.934 Y88.43 E1.21173
G1 X125.169 Y88.597 E1.22132
G1 X126.075 Y89.257 E1.2586
G1 X126.601 Y89.652 E1.28048
G1 X127.416 Y90.314 E1.3154
G1 X128.374 Y91.241 E1.35974
G1 X129.066 Y91.978 E1.39337
G1 X129.262 Y92.191 E1.40299
G1 X130.043 Y93.06 E1.44185
G1 X130.455 Y93.531 E1.46267
G1 X131.116 Y94.348 E1.49762
G1 X131.879 Y95.48 E1.54303
G1 X132.424 Y96.382 E1.57808
G1 X132.564 Y96.618 E1.5872
G1 X133.045 Y97.451 E1.6192
G1 X133.431 Y98.141 E1.64549
G1 X133.908 Y99.077 E1.68043
G1 X134.416 Y100.338 E1.72565
G1 X134.769 Y101.355 E1.76146
G1 X134.856 Y101.614 E1.77054
G1 X135.183 Y102.623 E1.80582
G1 X135.377 Y103.246 E1.82752
G1 X135.651 Y104.26 E1.86246
G1 X135.896 Y105.649 E1.90937
G1 X136.026 Y106.696 E1.94446
G1 X136.054 Y106.939 E1.9526
G1 X136.149 Y107.834 E1.98253
G1 X136.228 Y108.694 E2.01126
G1 X136.284 Y109.743 E2.0462
G1 X136.235 Y111.113 E2.09179
G1 X136.145 Y112.169 E2.12704
G1 X136.12 Y112.433 E2.13586
G1 X136.004 Y113.529 E2.17252
G1 X135.929 Y114.162 E2.19372
G1 X135.766 Y115.199 E2.22863
G1 X135.428 Y116.552 E2.27502
G1 X135.034 Y117.842 E2.31988
G1 X134.707 Y118.842 E2.35487
G1 X134.49 Y119.479 E2.37725
G1 X134.113 Y120.46 E2.41221
G1 X133.517 Y121.683 E2.45746
G1 X133.02 Y122.586 E2.49174
G1 X132.881 Y122.832 E2.50114
G1 X132.396 Y123.672 E2.5334
G1 X131.976 Y124.377 E2.56069
G1 X131.403 Y125.257 E2.59562
G1 X130.577 Y126.312 E2.64019
G1 X129.891 Y127.106 E2.67509
G1 X129.701 Y127.321 E2.68463
G1 X128.958 Y128.145 E2.72153
G1 X128.545 Y128.593 E2.7418
G1 X127.804 Y129.337 E2.77672
G1 X126.724 Y130.245 E2.82365
G1 X125.895 Y130.872 E2.85822
G1 X125.686 Y131.027 E2.86688
G1 X124.765 Y131.695 E2.90472
G1 X124.24 Y132.065 E2.92608
G1 X123.359 Y132.637 E2.96102
G1 X122.14 Y133.284 E3.00692
G1 X121.185 Y133.731 E3.04199
G1 X120.957 Y133.835 E3.05033
G1 X119.978 Y134.27 E3.08596
G1 X119.351 Y134.539 E3.10865
G1 X118.37 Y134.916 E3.1436
G1 X117.039 Y135.298 E3.18966
G1 X116.008 Y135.538 E3.22487
G1 X115.766 Y135.592 E3.23311
G1 X114.716 Y135.815 E3.26882
G1 X114.045 Y135.948 E3.29157
G1 X113.008 Y136.113 E3.32649
G1 X111.639 Y136.208 E3.37214
G1 X110.592 Y136.229 E3.40697
G1 X110.115 Y136.231 E3.42283
G1 X109.424 Y136.221 E3.44582
G1 X108.375 Y136.165 E3.48076
G1 X107.513 Y136.06 E3.50964
G1 X106.481 Y135.86 E3.5446
G1 X105.939 Y135.722 E3.5632
G1 X104.944 Y135.447 E3.59754
G1 X104.065 Y135.192 E3.62798
G1 X101.706 Y134.577 E3.70906
G1 X101.379 Y134.498 E3.72025
G1 X100.635 Y134.31 E3.74577
G1 X99.627 Y134.015 E3.78071
G1 X98.472 Y133.568 E3.8219
G1 X98.26 Y133.475 E3.8296
G1 X97.315 Y133.017 E3.86453
G1 X96.407 Y132.488 E3.89948
G1 X95.926 Y132.168 E3.91869
G1 X95.066 Y131.57 E3.95353
G1 X94.831 Y131.403 E3.96312
G1 X93.925 Y130.743 E4.0004
G1 X93.399 Y130.348 E4.02228
G1 X92.584 Y129.686 E4.0572
G1 X91.626 Y128.759 E4.10154
G1 X90.934 Y128.022 E4.13517
G1 X90.738 Y127.809 E4.14479
G1 X89.921 Y126.9 E4.18544
G1 X89.536 Y126.459 E4.20492
G1 X88.876 Y125.642 E4.23985
G1 X88.121 Y124.52 E4.28483
G1 X87.576 Y123.618 E4.31988
G1 X87.433 Y123.376 E4.32923
G1 X86.844 Y122.353 E4.36849
G1 X86.57 Y121.862 E4.38719
G1 X86.094 Y120.926 E4.42212
G1 X85.584 Y119.662 E4.46745
G1 X85.231 Y118.645 E4.50326
G1 X85.144 Y118.386 E4.51234
G1 X84.817 Y117.377 E4.54762
G1 X84.623 Y116.754 E4.56932
G1 X84.349 Y115.74 E4.60426
G1 X84.104 Y114.351 E4.65117
G1 X83.974 Y113.304 E4.68626
G1 X83.945 Y113.052 E4.6947
G1 X83.847 Y112.123 E4.72577
G1 X83.772 Y111.308 E4.75299
G1 X83.716 Y110.259 E4.78793
G1 X83.765 Y108.887 E4.83359
G1 X83.855 Y107.831 E4.86884
G1 X83.881 Y107.559 E4.87793
G1 X84.002 Y106.418 E4.91609
G1 X84.071 Y105.836 E4.93559
G1 X84.234 Y104.799 E4.9705
G1 X84.573 Y103.443 E5.01699
G1 X84.888 Y102.408 E5.05297
G1 X84.966 Y102.158 E5.06168
G1 X85.293 Y101.158 E5.09668
G1 X85.51 Y100.521 E5.11906
G1 X85.887 Y99.54 E5.15401
G1 X86.483 Y98.317 E5.19926
G1 X86.98 Y97.414 E5.23355
G1 X87.119 Y97.168 E5.24294
G1 X87.604 Y96.328 E5.2752
G1 X88.024 Y95.623 E5.3025
G1 X88.597 Y94.743 E5.33743
G1 X89.42 Y93.691 E5.38185
G1 X90.109 Y92.893 E5.41692
G1 X90.306 Y92.67 E5.42681
G1 X91.042 Y91.855 E5.46334
G1 X91.455 Y91.407 E5.4836
G0 F6000 X91.749 Y91.678
G1 F1200 X92.479 Y90.945 E5.51801
G1 X93.518 Y90.074 E5.5631
G1 X94.549 Y89.296 E5.60606
G1 X95.304 Y88.747 E5.63711
G1 X96.001 Y88.255 E5.66549
G1 X96.871 Y87.693 E5.69994
G1 X98.026 Y87.081 E5.74341
G1 X98.98 Y86.634 E5.77845
G1 X99.21 Y86.529 E5.78686
G1 X100.178 Y86.099 E5.82209
G1 X100.802 Y85.831 E5.84468
G1 X101.768 Y85.459 E5.87911
G1 X103.052 Y85.092 E5.92352
G1 X104.083 Y84.852 E5.95873
G1 X105.164 Y84.619 E5.99551
G1 X106.033 Y84.445 E6.02499
G1 X107.055 Y84.283 E6.0594
G1 X108.369 Y84.192 E6.10321
G1 X109.416 Y84.171 E6.13804
G1 X109.879 Y84.169 E6.15344
G1 X110.57 Y84.179 E6.17643
G1 X111.604 Y84.234 E6.21087
G1 X112.427 Y84.336 E6.23845
G1 X113.443 Y84.533 E6.27287
G1 X113.955 Y84.663 E6.29044
G1 X114.77 Y84.888 E6.31856
G1 X115.794 Y85.185 E6.35402
G1 X118.179 Y85.806 E6.436
G1 X118.523 Y85.889 E6.44776
G1 X119.267 Y86.077 E6.47329
G1 X120.26 Y86.37 E6.50772
G1 X121.367 Y86.798 E6.5472
G1 X121.579 Y86.891 E6.5549
G1 X122.51 Y87.343 E6.58932
G1 X123.404 Y87.866 E6.62377
G1 X123.846 Y88.16 E6.64142
G1 X124.706 Y88.758 E6.67626
G1 X124.934 Y88.92 E6.68557
G1 X125.666 Y89.452 E6.71566
G1 X126.361 Y89.972 E6.74453
G1 X127.164 Y90.625 E6.77896
G1 X128.083 Y91.515 E6.82151
G1 X128.775 Y92.252 E6.85513
G1 X128.965 Y92.458 E6.86445
G1 X129.615 Y93.18 E6.89677
G1 X130.154 Y93.795 E6.92396
G1 X130.805 Y94.599 E6.95837
G1 X131.537 Y95.687 E7.00199
G1 X132.082 Y96.589 E7.03704
G1 X132.217 Y96.818 E7.04588
G1 X132.797 Y97.825 E7.08453
G1 X133.082 Y98.336 E7.10399
G1 X133.551 Y99.259 E7.13843
G1 X134.038 Y100.469 E7.18181
G1 X134.391 Y101.486 E7.21761
G1 X134.476 Y101.738 E7.22646
G1 X134.801 Y102.742 E7.26156
G1 X134.995 Y103.365 E7.28326
G1 X135.264 Y104.364 E7.31767
G1 X135.499 Y105.698 E7.36272
G1 X135.629 Y106.745 E7.39781
G1 X135.656 Y106.982 E7.40575
G1 X135.771 Y108.08 E7.44247
G1 X135.83 Y108.73 E7.46418
G1 X135.884 Y109.763 E7.49858
G1 X135.837 Y111.079 E7.54238
G1 X135.747 Y112.135 E7.57763
G1 X135.627 Y113.299 E7.61655
G1 X135.532 Y114.115 E7.64387
G1 X135.371 Y115.137 E7.67828
G1 X135.045 Y116.436 E7.72283
G1 X134.73 Y117.472 E7.75884
G1 X134.653 Y117.718 E7.76742
G1 X134.328 Y118.713 E7.80223
G1 X134.111 Y119.35 E7.82461
G1 X133.74 Y120.316 E7.85903
G1 X133.166 Y121.49 E7.9025
G1 X132.669 Y122.393 E7.93678
G1 X132.535 Y122.632 E7.94589
G1 X132.05 Y123.472 E7.97815
G1 X131.633 Y124.171 E8.00522
G1 X131.068 Y125.038 E8.03964
G1 X130.275 Y126.051 E8.08243
G1 X129.589 Y126.845 E8.11733
G1 X129.404 Y127.054 E8.12661
G1 X128.664 Y127.874 E8.16335
G1 X128.251 Y128.322 E8.18362
G1 X127.521 Y129.055 E8.21803
G1 X126.482 Y129.926 E8.26312
G1 X125.451 Y130.704 E8.30608
G1 X124.696 Y131.253 E8.33713
G1 X124.009 Y131.738 E8.3651
G1 X123.141 Y132.301 E8.39951
G1 X121.971 Y132.921 E8.44355
G1 X121.016 Y133.368 E8.47862
G1 X119.996 Y133.825 E8.51579
G1 X119.82 Y133.903 E8.5222
G1 X119.193 Y134.172 E8.54489
G1 X118.227 Y134.543 E8.57931
G1 X116.948 Y134.908 E8.62354
G1 X115.917 Y135.148 E8.65875
G1 X114.836 Y135.381 E8.69553
G1 X113.967 Y135.555 E8.72501
G1 X112.945 Y135.717 E8.75943
G1 X111.631 Y135.808 E8.80323
G1 X110.584 Y135.829 E8.83806
G1 X110.121 Y135.831 E8.85346
G1 X109.43 Y135.821 E8.87645
G1 X108.396 Y135.766 E8.91089
G1 X107.573 Y135.664 E8.93847
G1 X106.557 Y135.467 E8.97289
G1 X106.045 Y135.337 E8.99046
G1 X105.23 Y135.112 E9.01858
G1 X104.206 Y134.815 E9.05405
G1 X101.821 Y134.194 E9.13602
G1 X101.477 Y134.111 E9.14779
G1 X100.733 Y133.923 E9.17331
G1 X99.74 Y133.63 E9.20774
G1 X98.633 Y133.202 E9.24722
G1 X98.421 Y133.109 E9.25492
G1 X97.49 Y132.657 E9.28934
G1 X96.596 Y132.134 E9.32379
G1 X96.154 Y131.84 E9.34145
G1 X95.294 Y131.242 E9.37628
G1 X95.066 Y131.08 E9.38559
G1 X94.334 Y130.548 E9.41568
G1 X93.639 Y130.028 E9.44455
G1 X92.836 Y129.375 E9.47898
G1 X91.917 Y128.485 E9.52153
G1 X91.225 Y127.748 E9.55515
G1 X91.035 Y127.542 E9.56447
G1 X90.358 Y126.79 E9.59813
G1 X89.838 Y126.196 E9.62439
G1 X89.187 Y125.39 E9.65885
G1 X88.463 Y124.313 E9.70201
G1 X87.918 Y123.411 E9.73706
G1 X87.779 Y123.176 E9.74614
G1 X87.287 Y122.323 E9.77889
G1 X86.92 Y121.667 E9.80389
G1 X86.451 Y120.744 E9.83833
G1 X85.962 Y119.531 E9.88183
G1 X85.609 Y118.514 E9.91763
G1 X85.524 Y118.262 E9.92648
G1 X85.199 Y117.258 E9.96158
G1 X85.005 Y116.635 E9.98328
G1 X84.736 Y115.636 E10.01769
G1 X84.501 Y114.302 E10.06274
G1 X84.371 Y113.255 E10.09783
G1 X84.343 Y113.01 E10.10604
G1 X84.226 Y111.888 E10.14356
G1 X84.17 Y111.272 E10.16413
G1 X84.116 Y110.238 E10.19857
G1 X84.163 Y108.921 E10.2424
G1 X84.253 Y107.865 E10.27765
G1 X84.38 Y106.641 E10.31858
G1 X84.399 Y106.465 E10.32446
G1 X84.468 Y105.883 E10.34396
G1 X84.63 Y104.861 E10.37837
G1 X84.956 Y103.559 E10.42302
G1 X85.271 Y102.524 E10.459
G1 X85.347 Y102.282 E10.46743
G1 X85.672 Y101.287 E10.50225
G1 X85.889 Y100.65 E10.52463
G1 X86.26 Y99.684 E10.55905
G1 X86.834 Y98.51 E10.60251
G1 X87.331 Y97.607 E10.6368
G1 X87.465 Y97.368 E10.64591
G1 X87.95 Y96.528 E10.67817
G1 X88.367 Y95.829 E10.70524
G1 X88.932 Y94.962 E10.73966
G1 X89.722 Y93.953 E10.78228
G1 X90.411 Y93.155 E10.81735
G1 X90.603 Y92.938 E10.82699
G1 X91.336 Y92.126 E10.86337
G1 X91.749 Y91.678 E10.88364
G0 F6000 X92.043 Y91.95
G1 F1200 X92.763 Y91.228 E10.91755
G1 X93.759 Y90.393 E10.96078
G1 X94.588 Y89.766 E10.99535
G1 X94.785 Y89.62 E11.0035
G1 X95.706 Y88.952 E11.04135
G1 X96.232 Y88.582 E11.06274
G1 X97.088 Y88.029 E11.09663
G1 X98.195 Y87.443 E11.13829
G1 X99.149 Y86.996 E11.17333
G1 X99.373 Y86.894 E11.18152
G1 X100.336 Y86.466 E11.21657
G1 X100.96 Y86.198 E11.23916
G1 X101.912 Y85.833 E11.27307
G1 X103.143 Y85.482 E11.31564
G1 X104.174 Y85.242 E11.35085
G1 X104.401 Y85.191 E11.35859
G1 X105.439 Y84.97 E11.39389
G1 X106.11 Y84.837 E11.41664
G1 X107.118 Y84.678 E11.45058
G1 X108.377 Y84.592 E11.49255
G1 X109.424 Y84.571 E11.52738
G1 X109.873 Y84.569 E11.54231
G1 X110.564 Y84.579 E11.5653
G1 X111.582 Y84.634 E11.59921
G1 X112.366 Y84.731 E11.62548
G1 X113.849 Y85.049 E11.67593
G1 X114.832 Y85.322 E11.70986
G1 X115.687 Y85.57 E11.73947
G1 X118.113 Y86.202 E11.82285
G1 X118.425 Y86.277 E11.83353
G1 X119.169 Y86.465 E11.85905
G1 X120.147 Y86.754 E11.89297
G1 X121.206 Y87.164 E11.93074
G1 X121.418 Y87.257 E11.93844
G1 X122.335 Y87.703 E11.97235
G1 X123.618 Y88.489 E12.0224
G1 X124.478 Y89.087 E12.05724
G1 X124.699 Y89.244 E12.06625
G1 X125.431 Y89.776 E12.09635
G1 X126.12 Y90.292 E12.12498
G1 X126.911 Y90.936 E12.15891
G1 X127.791 Y91.788 E12.19964
G1 X128.483 Y92.525 E12.23327
G1 X128.667 Y92.726 E12.24233
G1 X129.441 Y93.587 E12.28084
G1 X129.853 Y94.058 E12.30165
G1 X130.493 Y94.851 E12.33555
G1 X131.195 Y95.894 E12.37736
G1 X131.74 Y96.796 E12.41241
G1 X131.871 Y97.018 E12.42099
G1 X132.448 Y98.02 E12.45944
G1 X132.733 Y98.531 E12.47891
G1 X133.194 Y99.44 E12.5128
G1 X133.66 Y100.6 E12.55438
G1 X134.013 Y101.617 E12.59019
G1 X134.095 Y101.861 E12.59875
G1 X134.419 Y102.861 E12.63371
G1 X134.613 Y103.484 E12.65541
G1 X134.878 Y104.469 E12.68934
G1 X135.102 Y105.747 E12.7325
G1 X135.232 Y106.794 E12.76759
G1 X135.353 Y107.919 E12.80522
G1 X135.373 Y108.116 E12.81181
G1 X135.432 Y108.766 E12.83351
G1 X135.484 Y109.784 E12.86742
G1 X135.438 Y111.045 E12.90939
G1 X135.348 Y112.101 E12.94464
G1 X135.324 Y112.35 E12.95296
G1 X135.21 Y113.435 E12.98924
G1 X135.135 Y114.068 E13.01044
G1 X134.975 Y115.075 E13.04436
G1 X134.663 Y116.32 E13.08704
G1 X134.348 Y117.356 E13.12306
G1 X134.273 Y117.594 E13.13136
G1 X133.95 Y118.584 E13.166
G1 X133.733 Y119.221 E13.18838
G1 X133.366 Y120.173 E13.22231
G1 X132.816 Y121.297 E13.26393
G1 X132.319 Y122.2 E13.29822
G1 X132.188 Y122.432 E13.30708
G1 X131.6 Y123.448 E13.34612
G1 X131.29 Y123.966 E13.3662
G1 X130.733 Y124.819 E13.40008
G1 X129.972 Y125.789 E13.44109
G1 X129.286 Y126.583 E13.47599
G1 X129.107 Y126.786 E13.48499
G1 X128.37 Y127.602 E13.52156
G1 X127.957 Y128.05 E13.54183
G1 X127.237 Y128.772 E13.57574
G1 X126.241 Y129.607 E13.61897
G1 X125.412 Y130.234 E13.65354
G1 X125.215 Y130.38 E13.6617
G1 X124.304 Y131.041 E13.69913
G1 X123.779 Y131.411 E13.72049
G1 X122.923 Y131.965 E13.75441
G1 X121.801 Y132.559 E13.79663
G1 X120.846 Y133.006 E13.8317
G1 X120.631 Y133.104 E13.83956
G1 X119.663 Y133.535 E13.8748
G1 X119.036 Y133.804 E13.8975
G1 X118.083 Y134.169 E13.93144
G1 X116.857 Y134.518 E13.97384
G1 X115.826 Y134.758 E14.00904
G1 X115.599 Y134.809 E14.01678
G1 X114.561 Y135.03 E14.05208
G1 X113.89 Y135.163 E14.07483
G1 X112.882 Y135.322 E14.10877
G1 X111.623 Y135.408 E14.15074
G1 X110.576 Y135.429 E14.18558
G1 X110.127 Y135.431 E14.20051
G1 X109.436 Y135.421 E14.22349
G1 X108.418 Y135.366 E14.2574
G1 X107.634 Y135.269 E14.28368
G1 X106.151 Y134.951 E14.33412
G1 X105.168 Y134.678 E14.36806
G1 X104.313 Y134.43 E14.39766
G1 X101.887 Y133.798 E14.48105
G1 X101.575 Y133.723 E14.49172
G1 X100.831 Y133.535 E14.51724
G1 X99.853 Y133.246 E14.55116
G1 X98.794 Y132.836 E14.58893
G1 X98.582 Y132.743 E14.59663
G1 X97.665 Y132.297 E14.63055
G1 X96.382 Y131.511 E14.68059
G1 X95.522 Y130.913 E14.71543
G1 X95.301 Y130.756 E14.72445
G1 X94.569 Y130.224 E14.75454
G1 X93.88 Y129.708 E14.78317
G1 X93.089 Y129.064 E14.8171
G1 X92.209 Y128.212 E14.85784
G1 X91.517 Y127.475 E14.89146
G1 X91.332 Y127.274 E14.90055
G1 X90.524 Y126.374 E14.94078
G1 X90.139 Y125.933 E14.96025
G1 X89.499 Y125.139 E14.99417
G1 X88.805 Y124.106 E15.03556
G1 X88.26 Y123.204 E15.07061
G1 X88.126 Y122.976 E15.07941
G1 X87.543 Y121.963 E15.11828
G1 X87.269 Y121.472 E15.13698
G1 X86.807 Y120.563 E15.1709
G1 X86.34 Y119.4 E15.21258
G1 X85.987 Y118.383 E15.24839
G1 X85.905 Y118.139 E15.25695
G1 X85.581 Y117.139 E15.29191
G1 X85.387 Y116.516 E15.31361
G1 X85.122 Y115.531 E15.34754
G1 X84.898 Y114.253 E15.39069
G1 X84.768 Y113.206 E15.42578
G1 X84.741 Y112.968 E15.43375
G1 X84.624 Y111.852 E15.47107
G1 X84.568 Y111.236 E15.49164
G1 X84.516 Y110.218 E15.52555
G1 X84.562 Y108.955 E15.56758
G1 X84.652 Y107.899 E15.60283
G1 X84.676 Y107.643 E15.61138
G1 X84.796 Y106.512 E15.64921
G1 X84.865 Y105.93 E15.66871
